openframe-frontend-core/src/components/icons-v2/brand-logos/messenger.svg

<svg width="24" height="24" viewBox="0 0 24 24" fill="none" xmlns="http://www.w3.org/2000/svg">
<path d="M4.1329 4.13283C8.47741 -0.211674 15.5222 -0.211512 19.8668 4.13283C24.2114 8.47741 24.2114 15.5221 19.8668 19.8667C16.3899 23.3436 11.1863 24.0367 7.02011 21.9512L3.85019 22.7129C2.3074 23.0833 0.916602 21.6936 1.28671 20.1509L2.04697 16.978C-0.0371252 12.8122 0.656621 7.60911 4.1329 4.13283ZM18.276 5.72511C14.8101 2.25921 9.19109 2.25921 5.72519 5.72511C2.86532 8.58498 2.36391 12.9128 4.22665 16.2866C4.36228 16.5324 4.40058 16.8208 4.33505 17.0938L3.52206 20.4761L6.90732 19.6646L7.11386 19.6353C7.3213 19.625 7.52877 19.6727 7.71298 19.7744C11.0868 21.6372 15.4161 21.1358 18.276 18.2759C21.7417 14.8102 21.7414 9.19105 18.276 5.72511Z" fill="#888888"/>
<path d="M16.1363 9.27931C16.5341 8.80258 17.2427 8.73841 17.7198 9.13576C18.1971 9.53351 18.2626 10.2434 17.8648 10.7207L15.6837 13.3369C14.6998 14.5176 12.9386 14.5912 11.8575 13.5581L11.6495 13.3369L10.6212 12.1035C10.4901 11.9462 10.2624 11.9256 10.107 12.0435L10.0455 12.1035L7.86435 14.7197L7.78671 14.8047C7.37931 15.2039 6.72699 15.2378 6.27939 14.8648C5.80212 14.467 5.73809 13.7571 6.13583 13.2798L8.31699 10.6621L8.52353 10.4409C9.60449 9.40813 11.3658 9.48193 12.3497 10.6621L13.378 11.897L13.441 11.9556C13.5964 12.0735 13.824 12.0543 13.9552 11.897L16.1363 9.27931Z" fill="#888888"/>
</svg>

<svg xmlns="http://www.w3.org/2000/svg" width="24" height="24" fill="none" viewBox="0 0 24 24">
  <path fill="#888" d="M4.133 4.133c4.344-4.345 11.39-4.345 15.734 0 4.344 4.344 4.344 11.39 0 15.734-3.477 3.477-8.68 4.17-12.847 2.084l-3.17.762c-1.543.37-2.933-1.02-2.563-2.562l.76-3.173C-.037 12.812.657 7.609 4.133 4.133Zm14.143 1.592a8.875 8.875 0 0 0-12.55 0 8.878 8.878 0 0 0-1.5 10.562c.136.245.175.534.109.807l-.813 3.382 3.385-.811.207-.03c.207-.01.415.038.599.14a8.875 8.875 0 0 0 10.563-14.05Z"/>
  <path fill="#888" d="M16.136 9.28a1.125 1.125 0 0 1 1.729 1.44l-2.181 2.617a2.625 2.625 0 0 1-3.826.221l-.209-.221-1.028-1.233a.375.375 0 0 0-.514-.06l-.061.06-2.182 2.616-.077.085a1.126 1.126 0 0 1-1.651-1.525l2.181-2.618.207-.221a2.626 2.626 0 0 1 3.826.221l1.028 1.235.063.059a.375.375 0 0 0 .514-.059l2.181-2.618Z"/>
</svg>
